X: 2
T: La Belle Cathrine  v.2
P: piffero secondo b0025
O: safd 015
F: http://ancients.sudburymuster.org/mus/ssp/pdf/brandywF.pdf
Z: 2019 John Chambers <jc:trillian.mit.edu>
M: 2/4
L: 1/16
K: D
z2 |\
F4 {G}AGFG | A2F2 F4   | G4   GAGF | E2E2 E2E2 |\
F4 {G}AGFG | A2F2 F2A2 | G2G2 E2E2 | F4   F2  :|
|: z2 |\
D2F2  F2D2 | D2F2 F2D2 | D2F2 GAGF | E2E2 E2E2 |\
DEFG  F2E2 | D2F2 F2GA | d3c  A3d  | B2c2 d2  :|

% %sep 1 1 200
% %center - - - - - - - - - -
% Whatever we want at the bottom of each set belongs here.
